docs/svgs/room-lounge.svg

<svg viewBox="0 0 24 24" height="24px" width="24px" fill="#44739e" xmlns="http://www.w3.org/2000/svg"><title>hue:room-lounge</title><desc>Source: https://github.com/arallsopp/hass-hue-icons</desc><path d="M 18 12.75 C 20.484375 12.75 22.5 13.265625 22.5 15.75 C 22.5 16.164062 22.164062 16.5 21.75 16.5 L 21 16.5 L 21 17.25 C 21 18.078125 20.328125 18.75 19.5 18.75 C 18.671875 18.75 18 18.078125 18 17.25 L 18 16.5 L 6 16.5 L 6 17.25 C 6 18.078125 5.328125 18.75 4.5 18.75 C 3.671875 18.75 3 18.078125 3 17.25 L 3 16.5 L 2.25 16.5 C 1.835938 16.5 1.5 16.164062 1.5 15.75 C 1.5 15.710938 1.511719 15.671875 1.511719 15.632812 C 1.511719 15.613281 1.5 15.597656 1.5 15.574219 L 1.5 10.429688 C 1.5 9.644531 2.144531 9 2.929688 9 L 3.070312 9 C 3.855469 9 4.5 9.644531 4.5 10.429688 L 4.5 12.75 Z M 3.070312 7.5 L 2.929688 7.5 C 2.480469 7.5 1.882812 7.644531 1.5 7.828125 C 2.097656 5.519531 4.351562 3.75 7.859375 3.75 C 11.222656 3.75 13.328125 5.335938 14.25 7.5 L 18.261719 7.5 C 19.773438 7.5 21 8.726562 21 10.238281 L 21 10.566406 C 21 10.945312 20.695312 11.25 20.316406 11.25 L 6 11.25 L 6 10.429688 C 6 8.816406 4.683594 7.5 3.070312 7.5 Z M 3.070312 7.5 "/></svg>

<svg viewBox="0 0 24 24" height="24px" width="24px" fill="#44739e" xmlns="http://www.w3.org/2000/svg"><title>hue:room-lounge</title><desc>Source: https://github.com/arallsopp/hass-hue-icons</desc><path d="M18,12.75c2.48,0,4.5,0.52,4.5,3c0,0.41-0.34,0.75-0.75,0.75H21v0.75c0,0.83-0.67,1.5-1.5,1.5 s-1.5-0.67-1.5-1.5V16.5H6v0.75c0,0.83-0.67,1.5-1.5,1.5S3,18.08,3,17.25V16.5H2.25c-0.41,0-0.75-0.34-0.75-0.75 c0-0.04,0.01-0.08,0.01-0.12c0-0.02-0.01-0.04-0.01-0.06v-5.14C1.5,9.64,2.14,9,2.93,9h0.14C3.86,9,4.5,9.64,4.5,10.43v2.32H18z M3.07,7.5H2.93c-0.45,0-1.05,0.14-1.43,0.33c0.6-2.31,2.85-4.08,6.36-4.08c3.36,0,5.47,1.59,6.39,3.75h4.01 c1.51,0,2.74,1.23,2.74,2.74v0.33c0,0.38-0.3,0.68-0.68,0.68H6v-0.82C6,8.82,4.68,7.5,3.07,7.5z"/></svg>
